public/SVG/face.svg

<svg xmlns="http://www.w3.org/2000/svg" xmlns:xlink="http://www.w3.org/1999/xlink" xmlns:sketch="http://www.bohemiancoding.com/sketch/ns" viewBox="0 0 32 32" version="1.1" x="0px" y="0px"><title>speechless-face-avatar-boy-man-11</title><desc>Created with Sketch.</desc><g stroke="none" stroke-width="1" fill="none" fill-rule="evenodd" sketch:type="MSPage"><path d="M24.5728851,23.0941141 C26.0847779,16.969087 23.5542402,12.1548858 21.4280864,11.0822754 C19.598459,12.7549171 13.9938462,17 10.2890466,17 C12.2343263,15.4384766 12.8488535,12.9394531 12.8488535,12.9394531 C12.8488535,12.9394531 10.9859461,15.7346191 7.24611965,17 C6.45154466,18.5731485 6.67682658,20.3507184 6.78659707,21.5361582 C6.84777749,21.7403698 6.95210509,22.0855229 6.99214296,22.1994274 C7.09055416,22.4793995 7.21210961,22.7924224 7.35775135,23.1301118 C7.774276,24.0958785 8.2986796,25.0616511 8.9372701,25.9603932 C10.738893,28.4959687 13.0675623,30 16,30 C18.9311427,30 21.2399187,28.4973998 23.0104666,25.9636063 C23.6381381,25.065359 24.1509411,24.1000358 24.5559252,23.1346951 C24.5616169,23.1211281 24.5672702,23.1076009 24.5728851,23.0941141 L24.5728851,23.0941141 Z M5.94669386,22.2116429 C4.61458602,20.1217921 3.13011281,13.1987617 4.62664708,8.75830078 C6.40621687,3.47802734 12.6103081,1 15.7729333,1 C18.8013894,1.00000002 21.8450169,1.93994141 23.0552307,3.80615234 C23.0552307,3.80615234 25.0915798,2.75024414 26.9020692,3.80615234 C25.0915798,4.17895508 24.887945,5.19335938 24.887945,5.19335938 C27.9234944,6.90377632 29.4577737,17.0840684 26.1082885,21.6811732 C26.0708438,21.8119773 25.9120331,22.3649335 25.857287,22.526075 C25.7549564,22.8272785 25.6289716,23.1618434 25.4780638,23.5215549 C25.0472763,24.5484017 24.5017812,25.575266 23.8301706,26.5363937 C21.888484,29.3151002 19.2996007,31 16,31 C12.7016943,31 10.0952049,29.3165313 8.12209422,26.5396068 C7.43952798,25.5789739 6.88219633,24.552559 6.43951227,23.5261382 C6.28443097,23.166562 6.15455941,22.832124 6.04872776,22.5310413 C6.02660008,22.4680898 5.98792403,22.3454665 5.94669386,22.2116429 L5.94669386,22.2116429 Z M20.6103625,20.496219 L21.7234973,21.0527864 C21.9704865,21.176281 22.0705987,21.4766175 21.9471041,21.7236068 C21.8236094,21.970596 21.5232729,22.0707082 21.2762837,21.9472136 L19.2762837,20.9472136 C18.9077594,20.7629515 18.9077594,20.2370485 19.2762837,20.0527864 L21.2762837,19.0527864 C21.5232729,18.9292918 21.8236094,19.029404 21.9471041,19.2763932 C22.0705987,19.5233825 21.9704865,19.823719 21.7234973,19.9472136 L20.6103625,20.496219 Z M11.389528,20.496219 L10.2763932,21.0527864 C10.029404,21.176281 9.92929178,21.4766175 10.0527864,21.7236068 C10.176281,21.970596 10.4766175,22.0707082 10.7236068,21.9472136 L12.7236068,20.9472136 C13.0921311,20.7629515 13.0921311,20.2370485 12.7236068,20.0527864 L10.7236068,19.0527864 C10.4766175,18.9292918 10.176281,19.029404 10.0527864,19.2763932 C9.92929178,19.5233825 10.029404,19.823719 10.2763932,19.9472136 L11.389528,20.496219 Z M16,27 C16.5522847,27 17,26.5522847 17,26 C17,25.4477153 16.5522847,25 16,25 C15.4477153,25 15,25.4477153 15,26 C15,26.5522847 15.4477153,27 16,27 Z" fill="#000000" sketch:type="MSShapeGroup"></path></g></svg>

<?xml version="1.0" encoding="UTF-8"?>
<svg version="1.1" viewBox="0 0 32 32" xmlns="http://www.w3.org/2000/svg" xmlns:cc="http://creativecommons.org/ns#" xmlns:dc="http://purl.org/dc/elements/1.1/" xmlns:rdf="http://www.w3.org/1999/02/22-rdf-syntax-ns#">
<metadata>
<rdf:RDF>
<cc:Work rdf:about="">
<dc:format>image/svg+xml</dc:format>
<dc:type rdf:resource="http://purl.org/dc/dcmitype/StillImage"/>
</cc:Work>
</rdf:RDF>
</metadata>
<title>speechless-face-avatar-boy-man-11</title>
<desc>Created with Sketch.</desc>
<g fill="#e85a4f" fill-rule="evenodd">
<path d="m24.573 23.094c1.5119-6.125-1.0186-10.939-3.1448-12.012-1.8296 1.6726-7.4342 5.9177-11.139 5.9177 1.9453-1.5615 2.5598-4.0605 2.5598-4.0605s-1.8629 2.7952-5.6027 4.0605c-0.79457 1.5731-0.56929 3.3507-0.45952 4.5362 0.06118 0.20421 0.16551 0.54936 0.20555 0.66327 0.098411 0.27997 0.21997 0.593 0.36561 0.93068 0.41652 0.96577 0.94093 1.9315 1.5795 2.8303 1.8016 2.5356 4.1303 4.0396 7.0627 4.0396 2.9311 0 5.2399-1.5026 7.0105-4.0364 0.62767-0.89825 1.1405-1.8636 1.5455-2.8289 0.0056917-0.013567 0.011345-0.027094 0.01696-0.040581zm-18.626-0.88247c-1.3321-2.0899-2.8166-9.0129-1.32-13.453 1.7796-5.2803 7.9837-7.7583 11.146-7.7583 3.0285 2e-8 6.0721 0.93994 7.2823 2.8062 0 0 2.0363-1.0559 3.8468 0-1.8105 0.3728-2.0141 1.3872-2.0141 1.3872 3.0355 1.7104 4.5698 11.891 1.2203 16.488-0.037445 0.1308-0.19626 0.68376-0.251 0.8449-0.10233 0.3012-0.22832 0.63577-0.37922 0.99548-0.43079 1.0268-0.97628 2.0537-1.6479 3.0148-1.9417 2.7787-4.5306 4.4636-7.8302 4.4636-3.2983 0-5.9048-1.6835-7.8779-4.4604-0.68257-0.96063-1.2399-1.987-1.6826-3.0135-0.15508-0.35958-0.28495-0.69401-0.39078-0.9951-0.022128-0.062952-0.060804-0.18557-0.10203-0.3194zm14.664-1.7154l1.1131 0.55657c0.24699 0.12349 0.3471 0.42383 0.22361 0.67082-0.12349 0.24699-0.42383 0.3471-0.67082 0.22361l-2-1c-0.36852-0.18426-0.36852-0.71017 0-0.89443l2-1c0.24699-0.12349 0.54733-0.023382 0.67082 0.22361 0.12349 0.24699 0.023382 0.54733-0.22361 0.67082l-1.1131 0.54901zm-9.2208 0l-1.1131 0.55657c-0.24699 0.12349-0.3471 0.42383-0.22361 0.67082 0.12349 0.24699 0.42383 0.3471 0.67082 0.22361l2-1c0.36852-0.18426 0.36852-0.71017 0-0.89443l-2-1c-0.24699-0.12349-0.54733-0.023382-0.67082 0.22361-0.12349 0.24699-0.023382 0.54733 0.22361 0.67082l1.1131 0.54901zm4.6105 6.5038c0.55228 0 1-0.44772 1-1s-0.44772-1-1-1-1 0.44772-1 1 0.44772 1 1 1z" fill="#e85a4f"/>
</g>
</svg>
